X:5096
T:Fa-laa Fa-laa
M:4/4
R:Reel
L:1/8
Q:180
C:Aidan Crossey
K:G
|:E2BE dB (3BBB|AB(3BBB cBAG|E2BE dB(3BBB|(3ABc Bd gdBG:||
|:gb (3bbb aged|egfa g2 (3eee|gb (3bbb aged|efga g2 g2:||
